Origami/64x64/apps/kpatience.svg

<svg width="64" height="64" version="1" xmlns="http://www.w3.org/2000/svg">
 <path d="m12 54.398v2c0 1.44 1.1906 2.602 2.668 2.602h34.664c1.478 0 2.668-1.162 2.668-2.602v-2c0 1.44-1.19 2.602-2.668 2.602h-34.664c-1.4774 0-2.668-1.162-2.668-2.602z" style="opacity:.2"/>
 <rect transform="matrix(0,-1,-1,0,0,0)" x="-58" y="-52" width="52" height="40" rx="2.6" ry="2.666" style="fill:#cccccc"/>
 <path d="m27.402 24c-2.974 0-5.402 2.234-5.402 5 0 1.43958 0.65106 2.753 1.69644 3.6666l8.17 7.334 8.438-7.334c1.046-0.912 1.696-2.226 1.696-3.666 0-2.766-2.428-5-5.402-5-1.958 0-3.656 0.962-4.598 2.416-0.942-1.454-2.64-2.416-4.598-2.416z" style="fill:#e74c3c"/>
 <path d="M 16.1608,20 C 14.971,20 14,20.838 14,21.876 c 0,0.538 0.2604,1.032 0.6786,1.374 L 17.9464,26 21.322,23.25 C 21.74,22.908 22,22.414 22,21.876 22,20.838 21.028,20 19.8392,20 19.0556,20 18.3768,20.36 18,20.906 17.6232,20.36 16.9444,20 16.1608,20 Z" style="fill:#e74c3c"/>
 <path d="m19.5 17h-3l-0.5 1h-2l2.9632-8h2.0368l3.0857 8h-2.0857zm-2.403-1.9999h1.8913l-0.9883-3.0001-0.9028 2.9999z" style="fill:#e74c3c"/>
 <path d="m47.84 44c1.188 0 2.16-0.838 2.16-1.876 0-0.538-0.26-1.032-0.678-1.374l-3.268-2.75-3.376 2.75c-0.418 0.342-0.678 0.836-0.678 1.374 0 1.038 0.972 1.876 2.16 1.876 0.784 0 1.464-0.36 1.84-0.906 0.376 0.546 1.056 0.906 1.84 0.906z" style="fill:#e74c3c"/>
 <path d="m47.5 47h-3l-0.5-1h-2l2.9632 8h2.0368l3.0857-8h-2.0857zm-2.403 1.9999h1.8913l-0.9883 3.0001-0.9028-2.9999z" style="fill:#e74c3c"/>
 <path d="m14.667969 6c-1.4774 0-2.667969 1.1611625-2.667969 2.6015625v1c0-1.4404 1.190569-2.6015625 2.667969-2.6015625h34.664062c1.478 0 2.667969 1.1611625 2.667969 2.6015625v-1c0-1.4404-1.189969-2.6015625-2.667969-2.6015625h-34.664062z" style="fill:#ffffff;opacity:.2"/>
</svg>

<svg xmlns="http://www.w3.org/2000/svg" width="64" height="64" version="1">
 <path style="opacity:0.2" d="m 12,54.398 0,2 C 12,57.838 13.1906,59 14.668,59 l 34.664,0 C 50.81,59 52,57.838 52,56.398 l 0,-2 C 52,55.838 50.81,57 49.332,57 L 14.668,57 C 13.1906,57 12,55.838 12,54.398 Z"/>
 <rect style="fill:#cccccc" width="52" height="40" x="-58" y="-52" rx="2.6" ry="2.666" transform="matrix(0,-1,-1,0,0,0)"/>
 <path style="fill:#e74c3c" d="M 27.402,24 C 24.428,24 22,26.234 22,29 c 0,1.43958 0.65106,2.753 1.69644,3.6666 l 8.17,7.334 8.438,-7.334 c 1.046,-0.912 1.696,-2.226 1.696,-3.666 0,-2.766 -2.428,-5 -5.402,-5 -1.958,0 -3.656,0.962 -4.598,2.416 -0.942,-1.454 -2.64,-2.416 -4.598,-2.416 z"/>
 <path style="fill:#e74c3c" d="M 16.1608,20 C 14.971,20 14,20.838 14,21.876 c 0,0.538 0.2604,1.032 0.6786,1.374 L 17.9464,26 21.322,23.25 C 21.74,22.908 22,22.414 22,21.876 22,20.838 21.028,20 19.8392,20 19.0556,20 18.3768,20.36 18,20.906 17.6232,20.36 16.9444,20 16.1608,20 Z"/>
 <path style="fill:#e74c3c" d="m 19.5,17 -3,0 -0.5,1 -2,0 2.9632,-8 L 19,10 22.0857,18 20,18 Z m -2.403,-1.9999 1.8913,0 L 18,12 17.0972,14.9999 Z"/>
 <path style="fill:#e74c3c" d="M 47.84,44 C 49.028,44 50,43.162 50,42.124 50,41.586 49.74,41.092 49.322,40.75 L 46.054,38 42.678,40.75 C 42.26,41.092 42,41.586 42,42.124 42,43.162 42.972,44 44.16,44 44.944,44 45.624,43.64 46,43.094 46.376,43.64 47.056,44 47.84,44 Z"/>
 <path style="fill:#e74c3c" d="m 47.5,47 -3,0 -0.5,-1 -2,0 2.9632,8 L 47,54 50.0857,46 48,46 Z m -2.403,1.9999 1.8913,0 L 46,52 45.0972,49.0001 Z"/>
 <path style="opacity:0.2;fill:#ffffff" d="M 14.667969 6 C 13.190569 6 12 7.1611625 12 8.6015625 L 12 9.6015625 C 12 8.1611625 13.190569 7 14.667969 7 L 49.332031 7 C 50.810031 7 52 8.1611625 52 9.6015625 L 52 8.6015625 C 52 7.1611625 50.810031 6 49.332031 6 L 14.667969 6 z"/>
</svg>
